Icons/Line/si_Archive.svg

<svg width="24" height="24" viewBox="0 0 24 24" fill="none" xmlns="http://www.w3.org/2000/svg">
<path d="M21 7L20 18.6C20 19.93 18.93 21 17.6 21H6.4C5.07 21 4 19.93 4 18.6L3 7" stroke="black" stroke-width="1.5" stroke-miterlimit="10" stroke-linecap="round"/>
<path d="M21.4 3H2.6C1.71634 3 1 3.71634 1 4.6V5.4C1 6.28366 1.71634 7 2.6 7H21.4C22.2837 7 23 6.28366 23 5.4V4.6C23 3.71634 22.2837 3 21.4 3Z" stroke="black" stroke-width="1.5" stroke-miterlimit="10"/>
<path d="M16 7V9.2C16 9.64183 15.6418 10 15.2 10H8.8C8.35817 10 8 9.64183 8 9.2V7" stroke="black" stroke-width="1.5" stroke-miterlimit="10" stroke-linecap="round"/>
</svg>

<svg width="24" height="24" fill="none" xmlns="http://www.w3.org/2000/svg"><path d="m21 7-1 11.6c0 1.33-1.07 2.4-2.4 2.4H6.4C5.07 21 4 19.93 4 18.6L3 7" stroke="#000" stroke-width="1.5" stroke-miterlimit="10" stroke-linecap="round"/><path d="M21.4 3H2.6A1.6 1.6 0 0 0 1 4.6v.8A1.6 1.6 0 0 0 2.6 7h18.8A1.6 1.6 0 0 0 23 5.4v-.8A1.6 1.6 0 0 0 21.4 3Z" stroke="#000" stroke-width="1.5" stroke-miterlimit="10"/><path d="M16 7v2.2a.8.8 0 0 1-.8.8H8.8a.8.8 0 0 1-.8-.8V7" stroke="#000" stroke-width="1.5" stroke-miterlimit="10" stroke-linecap="round"/></svg>
